X: 1632
T: Anne S Robertson
R: barndance
M: 4/4
K: Cdorian
E2|:D4 E3G|A2Bc B3E|D2B2 d2cB|A2c2 c2E2|
D4 E3G|A2cA B2FD|E2GB A2ce|1 d2B2 B2E2:|2 d2B2 B2f2||
|:b2ef edcB|B2fd b2FE|D2FB d2cB|A2c2 c2f2|
b2ef edcB|B2dc BAGF|E2GB A2ce|1 d2B2 B2F2:|2 d2B2 B2||

